X:1
T:Title
L:1/4
M:4/4
I:linebreak $
K:G
V:1 treble nm="Voice"
V:1
"G" G3/2 A/ G D |"C" E G"G" D3/2 G/ |"C" E A"D" A G/A/ |"G" B A"D" A B |"G" G3/2 A/ G D | %5
"C" E G"G" D3/2 G/ |"C" E A"D" A G/A/ |1"G" B G G B/A/ :|2"G" B G G B/c/ |:"G" d3/2 e/ d G | %10
"C" e2 e2 | A e A e |"D" f2 f2 |"D" B f B f |"G" g2 g3/2 e/ | d B"D" A G/A/ |1"G" B G G B/c/ :|2 %17
"G" B G G B/A/ :| %18
